!!!COM: Palestrina, Giovanni Perluigi da
!!!OPR: Missa Ave Maria (1594)
!!!OMD: Sanctus
!!!OTL: First Section
**kern	**kern	**kern	**kern
*Ibass	*Itenor	*Icalto	*Icant
!Bassus	!Tenor	!Altus	!Cantus
*clefF4	*clefGv2	*clefG2	*clefG2
*k[]	*k[]	*k[]	*k[]
*A:aeo	*A:aeo	*A:aeo	*A:aeo
*M4/2	*M4/2	*M4/2	*M4/2
=1	=1	=1	=1
0r	1c	0r	0r
.	1G	.	.
=2	=2	=2	=2
0r	4A	0r	1cc
.	4B	.	.
.	4c	.	.
.	4d	.	.
.	1e	.	1g
=3	=3	=3	=3
0r	2r	1f	4a
.	.	.	4b
.	2a	.	4cc
.	.	.	4dd
.	2g	1c	1ee
.	4a	.	.
.	4g	.	.
=4	=4	=4	=4
0r	4f	4d	1ff
.	4e	4e	.
.	2d	4f	.
.	.	4g	.
.	2c	1a	2ee
.	2d	.	4ff
.	.	.	4ee
=5	=5	=5	=5
1r	1G	1b-	4dd
.	.	.	4cc
.	.	.	2dd
1F	2.A	2a	2cc
.	.	2a	2ff
.	4B	.	.
=6	=6	=6	=6
1C	1c	2g	4ee
.	.	.	4dd
.	.	4a	4cc
.	.	4g	4b
4D	2r	4f	1a
4E	.	4e	.
4F	2f	2d	.
4G	.	.	.
=7	=7	=7	=7
1A	2e	1c	2r
.	4f	.	1a
.	4e	.	.
1B-	4d	2f	.
.	4c	.	.
.	[2d	2d	2g
=8	=8	=8	=8
1A	4d]	2.e	2a
.	4c	.	.
.	2c	.	2ee
.	.	4f	.
1r	2B-	2g	2dd
.	2A	[2a	2cc
=9	=9	=9	=9
1r	1B-	2a]	1dd
.	.	2g	.
2r	2A	1cc	1ee
2A	[2e	.	.
=10	=10	=10	=10
2G	4e]	2b-	2r
.	4d	.	.
2F	2f	2a	1cc
1G	2e	2.g	.
.	[2d	.	2b-
.	.	4f	.
=11	=11	=11	=11
1A	4d]	1e	2.a
.	4c	.	.
.	2c	.	.
.	.	.	4b
4F	1A	2r	4cc
4G	.	.	4b
4A	.	2a	4cc
4B	.	.	4dd
=12	=12	=12	=12
2c	0r	2g	2ee
2d	.	2f	2a
1B-	.	1g	[1dd
=13	=13	=13	=13
1A	2r	2.a	2dd]
.	2e	.	2cc
.	.	4g	.
1r	2d	4a	2ff
.	.	4b	.
.	2c	2cc	2ee
=14	=14	=14	=14
0r	1d	2b	2.dd
.	.	1a	.
.	.	.	4cc
.	1e	.	1b
.	.	2g#	.
=15	=15	=15	=15
1.A	2r	2a	1a
.	1c	1e	.
.	.	.	1r
2G	2B	2e	.
=16	=16	=16	=16
2F	2A	2d	0r
1G	1B	2d	.
.	.	2e	.
2D	4A	[2f	.
.	4G	.	.
=17	=17	=17	=17
1F	1A	4f]	0r
.	.	4e	.
.	.	1d	.
1E	2G	.	.
.	[2g	2c	.
=18	=18	=18	=18
1D	2g]	2B	2r
.	2f	2A	1dd
1r	2g	2G	.
.	[2e	[2g	2cc
=19	=19	=19	=19
0r	2e]	2g]	1b
.	2d	2f	.
.	2c	2e	1a
.	[2d	[2f	.
=20	=20	=20	=20
0r	2d]	2f]	2b
.	2A	2e	2.cc
.	1c	1e	.
.	.	.	4b
.	.	.	[2a
=21	=21	=21	=21
2r	1B	1d	2a]
1d	.	.	2g#
.	1A	1e	[1a
2c#	.	.	.
=22	=22	=22	=22
2.d	1.f	2r	1a]
.	.	1a	.
4c	.	.	.
4A	.	.	1r
4B	.	.	.
2c	2e	2g	.
=23	=23	=23	=23
2d	2d	2f	2r
2c	4e	1g	1ee
.	4d	.	.
2c	4e	.	.
.	4f	.	.
2B-	2g	2d	2dd
=24	=24	=24	=24
2A	0a	1f	2cc
2.D	.	.	1dd
.	.	1f	.
4E	.	.	.
4F	.	.	2a
4G	.	.	.
=25	=25	=25	=25
1A	2r	1e	1cc
.	1e	.	.
2E	.	1g	1b
2G	2d	.	.
=26	=26	=26	=26
2A	2c	2e	2.a
2D	1d	2f	.
.	.	.	4g
2.F	.	1f	4a
.	.	.	4b
.	2A	.	[2cc
4G	.	.	.
=27	=27	=27	=27
1A	1c	1e	4cc]
.	.	.	4b
.	.	.	1a
1E	1B	2.e	.
.	.	.	2g#
.	.	4e	.
=28	=28	=28	=28
0A	0A	0e	0a
*-	*-	*-	*-
!!!CDT: 1525/^1526/-1594/2/2
!!!OCY: Italia
!!!AGN: Mass (Paraphrase)
!!!AST: renaissance, vocal
!!!ASW: Prayer
!!!PWK: Masses, Book 7
!!!RNB: Cadence finals: D
!!!YOR: Le Opere Complete, v. 23, p. 1
!!!YOO: Rome, Italy: Fratelli Scalera
!!!END: 1992//
!!!EED: John Miller
!!!YEC: Copyright 2000, John Miller
!!!YEN: United States of America
!!!YEM: Rights to all derivative electronic formats reserved.
!!!YEM: Refer to licensing agreement for further details.
!!!YEM: This file must be accompanied by the licensing agreement.
!!!YEM: A copy of the licensing agreement may be found at http://www.music-cog.ohio-state.edu/HumdrumDatabases/Palestrina/license.txt
!!!EMD: converted to Humdrum by Bret Aarden
